!!! OTL: Berkowitz94
!!! Chapter: 1
!!! Section: I
!!! Page: 23
!!! Mode: 
!!! Encoder: DJB
**kern
*staff1
*I"Piano
=1-
*clefG2
*k[]
*C:
*M4/4
8g/L
8e/
8c/
8g/J
4a/
16g/LL
16f/
16e/
16d/JJ
=2
8e/L
8c/
8d/
8e/J
4G/
16A/LL
16B/
16c/
16d/JJ
=3
16e/LL
16f/J
8g/J
16f/LL
16e/J
8d/J
16e/LL
16d/J
8c/J
8d/L
16e/L
16f/JJ
=4
16e/LL
16d/J
8c/J
8d/L
16e/L
16f/JJ
4e/
8d/
8r
=5
!!linebreak:original
8g/L
8e/
8c/
8g/J
8.a/L
16b/Jk
16cc/LL
16b/
16a/
16g/JJ
=6
8f/L
8e/
8d/
8c/J
4G/
16A/LL
16B/
16c/
16d/JJ
=7
16e/LL
16d/J
8c/J
8d/
8r
16e/LL
16f/
16g/
16e/JJ
8d/
8r
=8
16e/LL
16d/J
8c/J
16d/LL
16c/J
8B/J
4.c/
8r
==
*-
